!!!!SEGMENT: pl-kozmzk--mzk-m-159--009_walczynski-franciszek--praeludia-organi-op-5-larghetto.krn
!!!cenid: 18xx:2752
!!!COM: Walczyński, Franciszek
!!!COM-rismID: pe30021989
!!!CDT: ~1852-1937
!!!CNT: Polish
!!!GTL: Praeludia organi op. 5
!!!OTL: 9. Larghetto
!!!OMV: 009
!!!PDT: 1894
!!!AGN: Secular; Prelude
!!!SMS-siglum: PL-KOZmzk
!!!SMS-shelfmark: mzk/m/159
!!!SMS-shelfwork: 001-009 G
!!!SMS-variant:
!!!SMS-altvar:
!!!NIFC-rismSourceID: 1001084394
!!!NIFC-rismChildID: 1001116623
!!!NIFC-islandoraID: pl-kozmzk:2265
!!!URL-pdf-islandora: https://repozytorium.nifc.pl/islandora/object/pl-kozmzk%3A2265/datastream/PDF/view
!!!URL-scan: https://polish.musicsources.pl/pl/lokalizacje/galeria/druki-muzyczne/7406 @EN{Scan on Polish Music Sources Website} @PL{Skany w portalu Dziedzictwo Muzyki Polskiej w otwartym dostępie}
!!!ONB-nifc: UWAGA: numeracja plików zgodna z numeracją źrodłową
!!!OMD: 9 Larghetto.
!!!AIN: 2 empty
!!!key:
**kern	**kern	**dynam
*part2	*part1	*part1
*staff2	*staff1	*
*Iempty	*Iempty	*
*I"	*I"	*
*clefF4	*clefG2	*
*k[f#c#g#d#]	*k[f#c#g#d#]	*
*E:	*E:	*
*M3/4	*M3/4	*
=1	=1	=1
*^	*^	*
!	!	!	!	!LO:DY:b=2
2.r	4B\	2.rg	2.r	p
.	4.B^\	.	.	.
.	8A\	.	.	.
=2	=2	=2	=2	=2
2.r	4A\	2.rg	2.r	.
.	2G#\	.	.	.
=3	=3	=3	=3	=3
4c#/	4E#X\	2.rg	2.r	.
4.c#^/	4D#\	.	.	.
.	4E#\	.	.	.
8B/	.	.	.	.
=4	=4	=4	=4	=4
4B/	2F#\	2.rg	2.r	.
(4A/	.	.	.	.
4A#X/)	4En\	.	.	.
=5	=5	=5	=5	=5
4B/	(4D#\	2.r	4f#\	p
2A#X/	4C#\	.	4.f#^\	.
.	4FF#\)	.	.	.
.	.	.	8e\	.
=6	=6	=6	=6	=6
2A#X/	4FF##X\	2.r	4e\	.
.	4F##X\	.	4.d#^\	.
4B/	4G#\	.	.	.
.	.	.	8d#\	.
=7	=7	=7	=7	=7
!	!	!	!	!LO:DY:a
4G#/	4E\	4b/	4c#\	f
4.A/	4F#\	4.b^/	2d#\	.
.	4BB\	.	.	.
8B/	.	8a/	.	.
=8	=8	=8	=8	=8
[2.B/	(4E#X\	4a/	2dn\	.
.	4En\	4.g#^/	.	.
.	4Dn\	.	4e\	.
.	.	8g#/	.	.
=9	=9	=9	=9	=9
4B/]	2.C#\)	4g#/	[2.e#X\	.
4c#/	.	4.a^/	.	<
[4B/	.	.	.	.
.	.	8g#/	.	.
=10	=10	=10	=10	=10
4B/]	2F#\	4g#/	4e#\]	.
2A/	.	4.f#^/	2f#\	.
.	4E\	.	.	.
.	.	8f#/	.	[[
!!LO:LB:g=original
=11	=11	=11	=11	=11
[2.B/	4D#\	4ff#/	[2a\	f
.	4C#\	4.ff#^/	.	.
.	8D#\L	.	8a\L]	.
.	8E\J	8ee/	8g#\J	.
=12	=12	=12	=12	=12
2B/]	2.F#\	(4ee/	2.a\	.
.	.	2dd#/)	.	.
(4B#X/	.	.	.	.
=13	=13	=13	=13	=13
4Bn/	2.E#X\	(4ddn/	2.g#\	.
4c#/	.	4.cc#/	.	.
[4dn/	.	.	.	.
.	.	8b/	.	.
=14	=14	=14	=14	=14
4d/]	2.F#;\	4b/	4g#\	.
2c#/)	.	2a;/)	2f#\	.
=15	=15	=15	=15	=15
!	!	!	!	!LO:DY:rj
(4c#/	(4FF#\	(4a/	4f#\	p
4B/	4GG#\	4.g#^/	4e#X\	.
4A/	4AA\	.	4c#\	.
.	.	8f#/	.	.
=16	=16	=16	=16	=16
4F##X/	4AA#X\	4cc#/	[2.en\	.
4G#/	[2BB\)	2b/)	.	.
4B/)	.	.	.	.
=17	=17	=17	=17	=17
!	!	!	!	!LO:DY:a:rj
(4c#/	2.BB\]	4a/	4e\]	pp
4B/	.	4.g#^/	2d#\	.
4A/	.	.	.	.
.	.	8f#/	.	.
=18	=18	=18	=18	=18
*	*	*	*	*^
!	!	!	!	!LO:HP:a	!
(2.G#/)	(2.E\	[2.e/	2.B\	>	.
=19	=19	=19	=19	=19	=19
!	!	!	!	!	!LO:DY:rj
2.E/	2AA\	2.e/_	4dn\	.	ppp
.	.	.	4.cn^\	.	.
!LO:TX:b:i:t=rit.	!	!	!	!	!
.	4Cn\	.	.	.	.
.	.	.	8A\	.	.
=20	=20	=20	=20	=20	=20
2.G#/)	2.E;\)	2.e;/]	2.B\	]	.
*	*	*	*	*v	*v
*v	*v	*	*	*
*	*v	*v	*
==	==	==
*-	*-	*-
!!!system-decoration: {(s1,s2)}
!!!EED: Andrzej Borzym
!!!EEV: 2021-08-08
!!!ENC: Andrzej Kubiczek
!!!END: 2021-07-26
!!!YEC: Copyright 2022 Narodowy Instytut Fryderyka Chopina (https://polishscores.org)
!!!YEM: License CC-BY-4.0 (https://creativecommons.org/licenses/by/4.0)
